X:1
T:Title
%%score { ( 1 3 ) | 2 }
L:1/8
M:4/4
K:Bb
V:1 treble nm="Grand Piano"
V:3 treble 
V:2 bass 
V:1
 z4 z2[Q:1/4=94] [B,D][CE] | [DF]2 [DF]2 [DF][Fd][Ec][DB] | B2 A2 A2 AB | cccc G2 A2 | %4
 [DB]6 [B,D][CE] | [DF]2 [DF]2 [DF][Fd][Ec][DB] |[M:3/4] B2 A2 A2 |[M:1/4] AB | %8
[M:4/4] [Fc]2 [Fc]2 [=Ed][Ec][Ed][Ec] |[M:3/4] F6 |[M:1/4] d>c | %11
[M:4/4] [Ec]2 [DB]2 [DB]<[DF] [Dc]>[DB] | B2 A2 A<F A>B | c2 c2 ceFe | d6 z2 | %15
 [Ec]2 [DB]2 [DB]<[DF] [Dc]>[DB] | B2 A2 A<F A>B | c2 c2 c<e d>c |[M:3/4] [DB]6 |] %19
V:2
 z4 z2 [B,,F,][B,,F,] | [B,,B,]2 [B,,B,]2 [B,,B,][B,,B,][B,,B,][B,,B,] | %2
 [F,CE]2 [F,CE]2 [F,CE]2 [F,CE][F,B,D] | [F,A,E][F,A,E][F,A,E][F,A,E] [F,A,E]2 [F,E]2 | %4
 [B,,F,]6 [B,,F,][B,,F,] | [B,,B,]2 [B,,B,]2 [B,,B,][B,,B,][B,,B,][B,,B,] | %6
[M:3/4] [F,DF]2 [F,CF]2 [F,CF]2 |[M:1/4] [F,CF][F,G,F] | %8
[M:4/4] [C,A,]2 [C,A,]2 [C,B,][C,B,][C,B,][C,B,] |[M:3/4] [F,A,]6 |[M:1/4] [F,A,F]>[F,A,E] | %11
[M:4/4] [B,,F,]2 [B,,F,]2 [B,,F,]<[B,,B,] [B,,B,]>[B,,B,] | %12
 [F,CE]2 [F,CE]2 [F,CE]<[F,A,E] [F,CE]>[F,B,D] | %13
 [F,A,F]2 [F,A,F]2 [F,A,F][F,A,F][F,A,][K:treble][F,A,F] | %14
 [B,F]2[K:bass] [B,,B,]>[B,,B,] [B,,B,]2 [B,,B,]>[B,,B,] | %15
 [B,,F,]2 [B,,F,]2 [B,,F,]<[B,,B,] [B,,B,]>[B,,B,] | %16
 [F,CE]2 [F,CE]2 [F,CE]<[F,A,E] [F,CE]>[F,B,D] | [F,A,F]2 [F,A,F]2 [F,A,F]<[F,CF] [F,B,F]>[F,A,E] | %18
[M:3/4] [B,,B,]6 |] %19
V:3
 x8 | x8 | x8 | x8 | x8 | x8 |[M:3/4] x6 |[M:1/4] x2 |[M:4/4] x8 |[M:3/4] x6 |[M:1/4] x2 | %11
[M:4/4] x8 | x8 | x8 | z2 F>F F2 [Fd]>[Ec] | x8 | x8 | x8 |[M:3/4] x6 |] %19

